X:1
T:Grafted Into the Army
M:6/8
L:1/8
K:D
 z4 z B| AFE DEF| AAA A2 F/2F/2| BBB dcB| B A2 z2 B| AFE DEF| DB,D B2 B/2B/2|\
 AFD DDA| F D2 z2 F| EEE EAB| c2 A A2 F/2F/2| EEA EEE| FFF A2 B| AFE DEF|\
 DB,D B2 B/2B/2| AFD EEA| F D2 z2 d| DDD F2 E| D2 F A2 F| B2 B d2 B|\
 B A2 z2 B| AFED-E F| DB,D B2 B/2B/2| AFD EEA| F D2 z2 z|
